X:1
T:Memento salutis auctor
T:William Byrd (c.1540-1623)
T:3. pars
T:Memento salutis auctor
T:© Choral Public Domain Library 2010
T:© Choral Public Domain Library 2010
T:© Choral Public Domain Library 2010
T:© Choral Public Domain Library 2010
C:William Byrd (c.1540-1623)
Z:3. pars
Z:© Choral Public Domain Library 2010
%%score [ 1 2 3 ]
L:1/8
M:4/4
K:F
V:1 treble nm="Alto" snm="A."
V:2 treble-8 transpose=-12 nm="Tenor" snm="T."
V:3 bass nm="Bass" snm="B."
V:1
 [Cd]2 |[M:4/2] z16 | D4 F4 E2 C2 G2 F2 | E2 D2 E4 z4 F4 | G4 A2 F4 G2 E4- | E4 F4 E8 | %6
w: ||Me- men- to sa- lu- tis|au- * ctor, Quod|no- stri quon- dam cor-|* po- ris,|
 z8 z2 F2 G2 B2 | A4 F2 G4 D2 E4 | z4 z2 C2 D4 E2 F2- | F2 E2 D3 D C4 G4 | A4 B4 c6 F2 | %11
w: Ex il- li-|ba- ta Vir- gi- ne,|Na- scen- do for-|* mam sum- pse- ris, na-|scen- do for- mam|
 B6 AG A4 G4 | E2 F4 ED E4 E4 | !fermata!^F16 || D4 F4 E2 F4 G2 | A3 B A4 z2 A4 G2- | %16
w: sum- pse- * ris, for-|mam sum- * * * pse-|ris.|Ma- ri- a Ma- ter|gra- ti- æ, Ma- ri-|
 G2 F2 E2 D2 ^C3 D C4 | A8 G4 G4 | c4 F4 B6 B2 | A8 z2 G2 F2 D2 | F3 E F2 G2 E8 | z4 F4 G4 G2 G2- | %22
w: * a Ma- ter gra- ti- æ,|Ma- ter mi-|se- ri- cor- di-|æ, Ma- ter mi-|se- ri- cor- di- æ,|Tu nos ab ho-|
 G2 B2 A3 A G8 | z2 E2 A4 F2 B4 A2 | G6 F2 E4 z4 | z4 D4 A6 G2 | E4 F4 E6 G2 | !fermata!^F16 || %28
w: * ste pro- te- ge,|Et ho- ra mor- tis|sus- ci- pe,|et ho- ra|mor- tis sus- ci-|pe.|
 z8 z4 z2 G2- | GG ^F2 G4 D2 =F4 E2 | D4 C2 F4 G2 A4 | F2 B4 G2 ^F8 | z2 A2 c4 G4 z2 B2 | %33
w: Glo-|* ri- a ti- bi Do- mi-|ne, Qui na- tus es|de Vir- gi- ne,|Cum Pa- tre et|
 A2 F2 A3 A G8 | z2 F2 E2 C2 E3 E D4 | z2 E2 A3 G A2 E2 G4 | F4 E4 z2 F2 c3 B | c2 A2 c4 B4 A4 | %38
w: san- cto spi- ri- tu,|et san- cto spi- ri- tu,|In sem- pi- ter- na sæ-|cu- la, in sem- pi-|ter- na sæ- cu- la,|
 z8 E2 A4 G2 | A2 E2 G8 F4 | E2 E4 F2 !fermata!E8 || z4 z2 B2 A2 B2 F4 | z2 d2 c2 d2 A8 | %43
w: in sem- pi-|ter- na sæ- cu-|la, sæ- cu- la.|A- * * men.|A- * * men.|
 c6 BA B2 G2 A4 | D6 E2 F2 G2 A4- | A4 G2 F2 E8 | !fermata!^F16 |] %47
w: A- * * * * men.|A- * * * *||men.|
V:2
 [Dg]2 |[M:4/2] A4 c4 B2 G2 d2 c2 | B4 A4 z4 z2 D2 | A2 d2 ^c4 d4 d4 | e4 f2 d4 e2 ^c4- | %5
w: |Me- men- to sa- lu- tis|au- ctor, sa-|lu- tis au- ctor, Quod|no- stri quon- dam cor-|
 c4 d4 ^c4 z2 =c2 | d2 f2 e4 c2 d4 B2 | c8 z4 c4 | d4 e4 f4 c2 d2- | dc c4 =B2 c4 z4 | %10
w: * po- ris, Ex|il- li- ba- ta Vir- gi-|ne Na-|scen- do for- mam sum-|* * * pse- ris,|
 c4 d4 e4 f4- | f2 d2 c2 f4 ed e2 d2 | ^c4 d6 c=B c4 | !fermata!d16 || z8 A4 B4 | %15
w: na- scen- do, for-|* mam sum- * * * * pse-|ris, sum- pse- * *|ris.|Ma- ri-|
 A2 d4 c2 f3 f c2 e2- | e2 d2 ^c2 d2 e3 f e4 | z4 z2 f2 e2 c2 e2 d2 | e3 f d4 z2 _e2 d2 B2 | %19
w: a Ma- ter gra- ti- æ, Ma-|* ter gra- * * ti- æ,|Ma- ter mi- se- ri-|cor- di- æ, Ma- ter mi-|
 c2 d2 c6 B2 A4 | A2 d4 =B2 ^c2 d4 c2 | d4 z2 f2 e4 d2 e2- | ec g4 ^f2 g2 d2 e4- | %23
w: se- ri- cor- di- æ,|mi- se- ri- cor- * di-|æ, Tu nos ab ho-|* ste pro- te- ge, Et ho-|
 e2 c2 f4 d2 d4 f2 | e4 A3 d ^c4 z4 | d4 f6 e2 e4- | e2 d2 d8 ^c4 | !fermata!d16 || z8 d3 d c4 | %29
w: * ra mor- tis sus- ci-|pe, sus- ci- pe,|et ho- ra mor-|* tis sus- ci-|pe.|Glo- ri- a|
 d4 G2 B4 A2 G4 | z4 z2 c2 d2 e2 f2 c2 | d6 B2 A4 d4 | f4 e4 z2 e2 g4 | d4 z2 f2 e2 c2 d3 d | %34
w: ti- bi Do- mi- ne,|Qui na- tus es de|Vir- gi- ne, Cum|Pa- tre, cum Pa-|tre et san- cto spi- ri-|
 c2 d3 c c4 =BA B2 B2 | c8 z4 G2 c2- | c2 =B2 c2 G2 A3 G F4 | z4 c2 f4 e2 f2 c2 | e6 d2 c4 z4 | %39
w: tu, san- cto spi- * * * ri-|tu, In sem-|* pi- ter- na sæ- cu- la,|in sem- pi- ter- na|sæ- cu- la,|
 A4 d4 ^c2 e4 d2 | ^c3 =B c2 d2 !fermata!c8 || d8 d8 | f8 f4 z2 f2 | e2 f2 c4 z2 c4 BA | %44
w: in sem- pi- ter- na|sæ- * * cu- la.|A- men.|A- men. A-|* * men. A- * *|
 B2 G2 A4 A6 =B2 | c2 d2 e2 d4 ^c=B c4 | !fermata!d16 |] %47
w: * * men. A- *||men.|
V:3
 [C,D]2 |[M:4/2] z16 | z4 D,4 A,4 G,2 A,2 | C2 B,2 A,4 D,4 z2 D2 | C4 A,2 B,4 G,2 A,4- | %5
w: ||Me- men- to sa-|lu- tis au- ctor, Quod|no- stri quon- dam cor-|
 A,4 D,4 A,4 z2 A,2 | B,2 D2 C4 A,2 B,4 G,2 | F,6 C,2 G,2 B,2 A,4 | F,2 G,4 E,2 D,4 z4 | %9
w: * po- ris, Ex|il- li- ba- ta Vir- gi-|ne, ex il- li- ba-|ta Vir- gi- ne|
 z4 G,4 A,4 B,2 C2- | C2 A,2 G,3 G, C,4 z4 | D,4 F,8 G,4 | A,4 B,4 A,6 A,2 | !fermata!D,16 || z16 | %15
w: Na- scen- do, for-|* mam sum- pse- ris,|na- scen- do,|for- mam sum- pse-|ris.||
 D,4 F,4 D,2 F,4 G,2 | A,6 B,2 A,8 | z2 D2 C2 A,2 C6 B,2 | A,4 B,4 G,4 z2 G,2 | %19
w: Ma- ri- a Ma- ter|gra- ti- æ,|Ma- ter mi- se- ri-|cor- di- æ, Ma-|
 F,2 D,2 F,3 E, F,2 G,2 D,4- | D,4 z2 E,2 A,3 F, G,2 A,2 | D,4 z2 D2 C4 =B,2 C2- | %22
w: ter mi- se- ri- cor- di- æ,|_ mi- se- ri- cor- di-|æ, Tu nos ab ho-|
 C2 G,2 D3 D G,4 z2 E,2 | A,6 F,2 B,3 A, G,2 F,2 | C,4 D,4 A,6 G,2 | B,8 A,8 | A,12 A,4 | %27
w: * ste pro- te- ge, Et|ho- ra mor- tis sus- ci-|pe, et ho- ra|mor- tis|sus- ci-|
 !fermata!D,16 || G,3 G, F,2 G,4 D,2 F,2 E,2 | D,4 z8 C,4 | F,2 G,2 A,2 F,2 B,2 G,2 F,4 | %31
w: pe.|Glo- ri- a ti- bi Do- mi-|ne, Qui|na- tus es de Vir- gi- ne,|
 z2 D,2 G,3 G, D,4 z2 D,2 | D4 A,2 A,2 C4 G,4 | z2 D2 C2 A,2 C3 C G,2 B,2 | A,2 F,2 A,3 A, G,8 | %35
w: de Vir- gi- ne, Cum|Pa- tre, cum Pa- tre|et san- cto spi- ri- tu, et|san- cto spi- ri- tu,|
 z2 C,2 F,3 E, F,2 C,2 E,4 | D,4 C,4 z2 F,2 A,3 G, | A,2 F,2 A,4 G,4 F,4 | %38
w: In sem- pi- ter- na sæ-|cu- la, in sem- pi-|ter- na sæ- cu- la,|
 z2 C,2 C3 B, C2 A,2 C4- | C4 B,4 A,8 | A,6 D,2 !fermata!A,8 || z2 G,2 ^F,2 G,2 D,4 z2 B,2 | %42
w: in sem- pi- ter- na sæ-|* cu- la,|sæ- cu- la.|A- * * men. A-|
 A,2 B,2 F,4 z2 D2 C2 D2 | A,4 z2 F,2 G,2 E,2 F,4 | G,4 D,6 E,2 F,2 G,2 | A,16 | !fermata!D,16 |] %47
w: * * men. A- * *|men. A- * * *|men. A- * * *||men.|

